!! 00010] TT[TB
!! Eigene Aufnahme
!!!OTL: Lan lan jun ma The roan horse
!!!ARE: Neimeng
!! Ethnic Group: Menggu
!! MM, S. 166
!!!SCT: C0538
!!!YEM: Copyright 1995, estate of Helmut Schaffrath.
**kern
*ICvox
*Ivox
*M2/4
*k[]
*C:
{8dd
4dd
8cc
=1
8ee
16dd
16ee
4gg
=2
8.cc
16dd
8dd
8gg
=3
4dd
8cc
8ee}
=4
{8a
16dd
16cc
8a
8cc
=5
8dd
8cc
8a
8cc
=6
4.dd
8cc
=7
8.dd
16ee
4gg}
=8
{4.g
16a
16g
=9
4e
8g
8a
=10
8.cc
16dd
8ee
8gg
=11
4dd
8cc
8ee}
=12
{8a
16dd
16cc
8a
8g
=13
8e
8d
8e
8g
=14
4.a
16dd
16cc
=15
2a}
==
!!!AGN: NN
!! Saenger: Chao Lun Batou, der das Buch nur zum Nachschlagen
!!    benutzte und ansonsten auswendig sang. Da er aus dem Osten der
!!    Neimeng kommt, kennt er nicht so viele Lieder des Westens.
!!    Alle Lieder wurden mit erkaelteter, halber Stimme in meinem
!!    Zimmer gesungen. FOTO VORHANDEN (DIAS)  31.3.87  VARIANTE
!!!ONB: ESAC (Essen Associative Code) Database: CHINA
!!!AMT: simple duple
!!!AIN: vox
!!!EED: Helmut Schaffrath
!!!EEV: 1.0
*-
